svgs/thin/camera-web-slash.svg

<svg xmlns="http://www.w3.org/2000/svg" viewBox="0 0 640 512"><!--! Font Awesome Pro 6.3.0 by @fontawesome - https://fontawesome.com License - https://fontawesome.com/license (Commercial License) Copyright 2023 Fonticons, Inc. --><path d="M320 16c114.7 0 208 93.31 208 208c0 31.94-7.447 62.09-20.37 89.16l12.82 10.19c14.93-29.99 23.54-63.65 23.54-99.36c0-123.5-100.5-223.1-223.1-223.1c-53.92 0-103.4 19.17-142.1 51.03l12.93 10.28C226.3 33.03 271.2 16 320 16zM101.7 174.5C98.09 190.4 95.1 206.1 95.1 223.1c0 123.5 100.5 224 224 224c34.93 0 67.9-8.273 97.4-22.6l-13.89-11.04C377.9 425.6 349.7 432 320 432c-114.7 0-208-93.31-208-208c0-13.13 1.365-25.94 3.705-38.41L101.7 174.5zM455.3 271.6C460.6 256.6 464 240.8 464 224c0-79.4-64.6-144-144-144c-28.39 0-54.71 8.531-77.04 22.77l13.5 10.73c18.79-10.83 40.29-17.51 63.54-17.51c70.69 0 127.9 57.3 127.9 127.1c0 12.94-2.407 25.18-5.976 36.95L455.3 271.6zM636.1 497.7L12.99 1.73C11.53 .5664 9.771 0 8.025 0C5.674 0 3.336 1.027 1.738 3.012c-2.75 3.469-2.172 8.5 1.281 11.25l623.1 496C628.5 511.4 630.2 512 631.1 512c2.344 0 4.688-1.031 6.266-3.016C641 505.5 640.4 500.5 636.1 497.7zM342.3 365.7l-17.86-14.19C322.1 351.6 321.5 352 320 352c-62.41 0-114.2-44.71-125.6-103.8l-17.39-13.82C182.5 308.8 244.1 368 320 368C327.7 368 335 366.9 342.3 365.7zM504 496H153.4l36.66-42.78c2.875-3.375 2.5-8.406-.8438-11.28c-3.375-2.906-8.406-2.469-11.28 .8438l-48 56c-2.031 2.375-2.5 5.719-1.219 8.562C130 510.2 132.9 512 136 512h368c4.418 0 8-3.582 8-8S508.4 496 504 496z"/></svg>

<svg xmlns="http://www.w3.org/2000/svg" viewBox="0 0 640 512"><!-- Font Awesome Pro 6.0.0-alpha2 by @fontawesome - https://fontawesome.com License - https://fontawesome.com/license (Commercial License) --><path d="M319.999 16C434.687 16 527.999 109.312 527.999 224C527.999 255.938 520.552 286.094 507.634 313.162L520.454 323.354C535.382 293.365 543.999 259.707 543.999 224C543.999 100.5 443.499 0 319.999 0C266.081 0 216.558 19.166 177.857 51.027L190.784 61.303C226.312 33.027 271.173 16 319.999 16ZM101.708 174.463C98.085 190.424 95.999 206.961 95.999 224C95.999 347.5 196.499 448 319.999 448C354.933 448 387.896 439.729 417.396 425.4L403.507 414.361C377.919 425.633 349.706 432 319.999 432C205.312 432 111.999 338.688 111.999 224C111.999 210.865 113.365 198.057 115.704 185.59L101.708 174.463ZM455.29 271.557C460.572 256.592 463.999 240.75 463.999 224C463.999 144.598 399.402 80 319.999 80C291.609 80 265.284 88.533 242.954 102.773L256.456 113.506C275.247 102.672 296.749 96 319.999 96C390.693 96 447.999 153.307 447.999 224C447.999 236.936 445.507 249.172 441.939 260.943L455.29 271.557ZM636.98 497.734L12.988 1.73C11.525 0.566 9.771 0 8.025 0C5.673 0 3.335 1.027 1.738 3.012C-1.012 6.48 -0.434 11.512 3.019 14.262L627.011 510.266C628.495 511.438 630.245 512 631.995 512C634.339 512 636.683 510.969 638.261 508.984C641.011 505.516 640.433 500.484 636.98 497.734ZM342.341 365.74L324.486 351.547C322.962 351.602 321.536 352 319.999 352C257.585 352 205.755 307.287 194.435 248.172L177.046 234.35C182.46 308.85 244.142 368 319.999 368C327.65 368 335.009 366.895 342.341 365.74ZM503.999 496H153.406L190.062 453.219C192.937 449.844 192.562 444.812 189.218 441.937C185.843 439.031 180.812 439.469 177.937 442.781L129.937 498.781C127.906 501.156 127.437 504.5 128.718 507.344C130.031 510.188 132.874 512 135.999 512H503.999C508.417 512 511.999 508.418 511.999 504S508.417 496 503.999 496Z"/></svg>
